img/logo.svg

<svg width="120" height="35" viewBox="0 0 120 35" fill="none" xmlns="http://www.w3.org/2000/svg">
<path fill-rule="evenodd" clip-rule="evenodd" d="M87.468 25V18.76L91.956 25H96.204L91.212 18.52L95.892 12.04H91.86L87.468 18.28V7.71997H84.156L84.132 25H87.468ZM73.764 25.36C74.884 25.36 75.81 25.166 76.542 24.778C77.1113 24.4762 77.6504 24.028 78.1593 23.4335L78.18 23.408V25H81.036V17.08C81.036 16.488 81.012 15.952 80.964 15.472C80.916 14.992 80.764 14.512 80.508 14.032C80.052 13.168 79.38 12.56 78.492 12.208C77.604 11.856 76.588 11.68 75.444 11.68C73.884 11.68 72.652 12.016 71.748 12.688C70.844 13.36 70.228 14.232 69.9 15.304L72.852 16.24C73.06 15.648 73.424 15.236 73.944 15.004C74.464 14.772 74.964 14.656 75.444 14.656C76.308 14.656 76.924 14.836 77.292 15.196C77.5496 15.448 77.717 15.7999 77.7943 16.2519L77.817 16.421L77.2963 16.4985L76.7621 16.5779L76.248 16.654C75.408 16.778 74.656 16.908 73.992 17.044C73.328 17.18 72.756 17.336 72.276 17.512C71.58 17.768 71.026 18.086 70.614 18.466C70.202 18.846 69.904 19.284 69.72 19.78C69.536 20.276 69.444 20.824 69.444 21.424C69.444 22.144 69.61 22.802 69.942 23.398C70.274 23.994 70.762 24.47 71.406 24.826C72.05 25.182 72.836 25.36 73.764 25.36ZM51.444 25V17.152C51.444 16.408 51.65 15.802 52.062 15.334C52.474 14.866 53.02 14.632 53.7 14.632C54.412 14.632 54.97 14.87 55.374 15.346C55.778 15.822 55.98 16.488 55.98 17.344V25H59.244V17.152C59.244 16.656 59.338 16.218 59.526 15.838C59.714 15.458 59.976 15.162 60.312 14.95C60.648 14.738 61.044 14.632 61.5 14.632C62.212 14.632 62.77 14.87 63.174 15.346C63.578 15.822 63.78 16.488 63.78 17.344V25H67.044V16.48C67.044 15.064 66.666 13.918 65.91 13.042C65.154 12.166 64.036 11.728 62.556 11.728C61.692 11.728 60.906 11.918 60.198 12.298C59.54 12.6512 59.0063 13.1339 58.5971 13.7462L58.5428 13.6453C58.2845 13.208 57.9505 12.8346 57.541 12.5253L57.33 12.376C56.678 11.944 55.844 11.728 54.828 11.728C53.94 11.728 53.138 11.924 52.422 12.316C51.9447 12.5773 51.5322 12.9009 51.1847 13.2866L51.036 13.461V12.04H48.156V25H51.444ZM73.488 22.624C73.76 22.736 74.084 22.792 74.46 22.792C75.06 22.792 75.566 22.686 75.978 22.474C76.39 22.262 76.718 22.02 76.962 21.748C77.206 21.476 77.372 21.248 77.46 21.064C77.628 20.712 77.726 20.302 77.754 19.834L77.7691 19.5625C77.7781 19.3878 77.7848 19.2256 77.7893 19.0758L77.789 19.066L77.7446 19.073C77.2259 19.1608 76.779 19.2385 76.404 19.306C75.804 19.414 75.32 19.512 74.952 19.6C74.584 19.688 74.26 19.784 73.98 19.888C73.66 20.016 73.402 20.154 73.206 20.302C73.01 20.45 72.866 20.612 72.774 20.788C72.682 20.964 72.636 21.16 72.636 21.376C72.636 21.672 72.71 21.926 72.858 22.138C73.006 22.35 73.216 22.512 73.488 22.624ZM108.816 15.34C109.272 16.5 109.432 17.864 109.296 19.432H107.724H100.197L100.214 19.5572C100.326 20.2768 100.563 20.865 100.926 21.322C101.45 21.982 102.22 22.312 103.236 22.312C103.876 22.312 104.424 22.172 104.88 21.892C105.336 21.612 105.684 21.208 105.924 20.68L109.188 21.616C108.7 22.8 107.93 23.72 106.878 24.376C105.826 25.032 104.676 25.36 103.428 25.36C102.1 25.36 100.93 25.074 99.918 24.502C98.906 23.93 98.114 23.142 97.542 22.138C96.97 21.134 96.684 19.984 96.684 18.688C96.684 17.272 96.964 16.04 97.524 14.992C98.084 13.944 98.856 13.13 99.84 12.55C100.824 11.97 101.956 11.68 103.236 11.68C104.596 11.68 105.752 12 106.704 12.64C107.656 13.28 108.36 14.18 108.816 15.34ZM105.993 17.008H100.284L100.307 16.8981C100.419 16.426 100.586 16.0226 100.81 15.6877L100.926 15.526C101.45 14.85 102.268 14.512 103.38 14.512C104.332 14.512 105.018 14.802 105.438 15.382C105.696 15.7389 105.875 16.2359 105.975 16.8731L105.993 17.008ZM115.284 18.376V25H111.996V12.04H114.876V14.128L114.927 14.0368C115.021 13.8768 115.124 13.7232 115.236 13.576C115.516 13.208 115.86 12.904 116.268 12.664C116.58 12.472 116.92 12.322 117.288 12.214C117.656 12.106 118.036 12.038 118.428 12.01C118.82 11.982 119.212 11.992 119.604 12.04V15.088C119.244 14.976 118.826 14.938 118.35 14.974C117.874 15.01 117.444 15.12 117.06 15.304C116.676 15.48 116.352 15.714 116.088 16.006C115.824 16.298 115.624 16.642 115.488 17.038C115.352 17.434 115.284 17.88 115.284 18.376Z" fill="white"/>
<path fill-rule="evenodd" clip-rule="evenodd" d="M31.9475 17.306C31.9823 16.8752 32 16.4397 32 16C32 15.1345 31.9313 14.2851 31.799 13.4569C33.7861 15.7342 34.9925 18.7108 35 21.9703C35.0079 25.4215 33.6431 28.7343 31.2064 31.1784C28.7697 33.6225 25.4611 34.9974 22.0099 35C18.7362 35.0025 15.7441 33.7947 13.4569 31.799C14.2851 31.9313 15.1345 32 16 32C16.4392 32 16.8743 31.9823 17.3046 31.9476C20.0679 33.2513 23.3103 33.3718 26.2347 32.1519C30.345 30.4375 33.0159 26.4138 32.9999 21.9603C32.9925 20.2955 32.6157 18.7182 31.9475 17.306ZM31.9475 17.306C30.1859 13.5833 26.3987 11.0078 22.01 11C17.5565 10.996 13.54 13.6778 11.8367 17.7927C10.1333 21.9076 11.0793 26.6436 14.2326 29.7884C15.1424 30.6957 16.1841 31.4189 17.3046 31.9476C25.1002 31.3185 31.3177 25.1014 31.9475 17.306ZM13.4569 31.799C5.82898 30.5808 0 23.9711 0 16C0 7.16344 7.16344 0 16 0C23.9711 0 30.5807 5.82896 31.799 13.4569C29.4107 10.7198 25.8945 8.99306 21.9769 9.00002C14.7998 9.01277 8.99091 14.8394 9.00001 22.0165C9.00496 25.9199 10.7298 29.4195 13.4569 31.799Z" fill="#3EE9E5"/>
</svg>

<svg xmlns="http://www.w3.org/2000/svg" fill="none" viewBox="0 0 120 35"><path fill="#fff" fill-rule="evenodd" d="M87.468 25v-6.24L91.956 25h4.248l-4.992-6.48 4.68-6.48H91.86l-4.392 6.24V7.72h-3.312L84.132 25h3.336Zm-13.704.36c1.12 0 2.046-.194 2.778-.582.57-.302 1.108-.75 1.617-1.345l.021-.025V25h2.856v-7.92c0-.592-.024-1.128-.072-1.608-.048-.48-.2-.96-.456-1.44-.456-.864-1.128-1.472-2.016-1.824-.888-.352-1.904-.528-3.048-.528-1.56 0-2.792.336-3.696 1.008a5.008 5.008 0 0 0-1.848 2.616l2.952.936c.208-.592.572-1.004 1.092-1.236.52-.232 1.02-.348 1.5-.348.864 0 1.48.18 1.848.54.258.252.425.604.502 1.056l.023.169-.52.078-.535.079-.514.076a41.67 41.67 0 0 0-2.256.39c-.664.136-1.236.292-1.716.468-.696.256-1.25.574-1.662.954-.412.38-.71.818-.894 1.314a4.695 4.695 0 0 0-.276 1.644c0 .72.166 1.378.498 1.974.332.596.82 1.072 1.464 1.428.644.356 1.43.534 2.358.534ZM51.444 25v-7.848c0-.744.206-1.35.618-1.818.412-.468.958-.702 1.638-.702.712 0 1.27.238 1.674.714.404.476.606 1.142.606 1.998V25h3.264v-7.848c0-.496.094-.934.282-1.314.188-.38.45-.676.786-.888.336-.212.732-.318 1.188-.318.712 0 1.27.238 1.674.714.404.476.606 1.142.606 1.998V25h3.264v-8.52c0-1.416-.378-2.562-1.134-3.438-.756-.876-1.874-1.314-3.354-1.314-.864 0-1.65.19-2.358.57a4.394 4.394 0 0 0-1.6 1.448l-.055-.1a3.838 3.838 0 0 0-1.002-1.12l-.211-.15c-.652-.432-1.486-.648-2.502-.648-.888 0-1.69.196-2.406.588-.477.261-.89.585-1.237.97l-.149.175V12.04h-2.88V25h3.288Zm22.044-2.376c.272.112.596.168.972.168.6 0 1.106-.106 1.518-.318.412-.212.74-.454.984-.726.244-.272.41-.5.498-.684.168-.352.266-.762.294-1.23l.015-.271c.01-.175.016-.337.02-.487v-.01l-.044.007c-.52.088-.966.165-1.341.233-.6.108-1.084.206-1.452.294a8.47 8.47 0 0 0-.972.288c-.32.128-.578.266-.774.414-.196.148-.34.31-.432.486a1.25 1.25 0 0 0-.138.588c0 .296.074.55.222.762.148.212.358.374.63.486Zm35.328-7.284c.456 1.16.616 2.524.48 4.092h-9.099l.017.125c.112.72.349 1.308.712 1.765.524.66 1.294.99 2.31.99.64 0 1.188-.14 1.644-.42.456-.28.804-.684 1.044-1.212l3.264.936c-.488 1.184-1.258 2.104-2.31 2.76a6.395 6.395 0 0 1-3.45.984c-1.328 0-2.498-.286-3.51-.858a6.189 6.189 0 0 1-2.376-2.364c-.572-1.004-.858-2.154-.858-3.45 0-1.416.28-2.648.84-3.696.56-1.048 1.332-1.862 2.316-2.442.984-.58 2.116-.87 3.396-.87 1.36 0 2.516.32 3.468.96.952.64 1.656 1.54 2.112 2.7Zm-2.823 1.668h-5.709l.023-.11a3.69 3.69 0 0 1 .503-1.21l.116-.162c.524-.676 1.342-1.014 2.454-1.014.952 0 1.638.29 2.058.87.258.357.437.854.537 1.491l.018.135Zm9.291 1.368V25h-3.288V12.04h2.88v2.088l.051-.091c.094-.16.197-.314.309-.461.28-.368.624-.672 1.032-.912a4.184 4.184 0 0 1 1.02-.45 5.403 5.403 0 0 1 1.14-.204 6.086 6.086 0 0 1 1.176.03v3.048c-.36-.112-.778-.15-1.254-.114a3.584 3.584 0 0 0-1.29.33c-.384.176-.708.41-.972.702a2.945 2.945 0 0 0-.6 1.032 4.104 4.104 0 0 0-.204 1.338Z" clip-rule="evenodd"/><path fill="#3EE9E5" fill-rule="evenodd" d="M31.948 17.306a16.217 16.217 0 0 0-.149-3.85A12.95 12.95 0 0 1 35 21.97 13 13 0 0 1 22.01 35a12.95 12.95 0 0 1-8.553-3.201 16.113 16.113 0 0 0 3.848.149 11 11 0 0 0 14.643-14.642Zm0 0A11.011 11.011 0 0 0 22.01 11a11 11 0 0 0-4.705 20.948c7.795-.63 14.013-6.847 14.643-14.642ZM13.457 31.799C5.829 30.581 0 23.971 0 16 0 7.163 7.163 0 16 0c7.971 0 14.58 5.829 15.799 13.457A12.97 12.97 0 0 0 21.977 9C14.8 9.013 8.99 14.84 9 22.017a12.97 12.97 0 0 0 4.457 9.782Z" clip-rule="evenodd"/></svg>
